web/Alivewater/Alivewater/img/10/Six.svg

<svg width="84" height="95" viewBox="0 0 84 95" fill="none" xmlns="http://www.w3.org/2000/svg">
<path fill-rule="evenodd" clip-rule="evenodd" d="M0.895877 22.066C2.57564 20.128 4.6287 18.666 7.12968 17.748C13.2515 15.47 21.1651 17 27.4735 18.02C35.4618 19.312 43.1514 20.366 51.2143 18.904C55.507 18.122 59.9117 17.85 64.0178 16.524L65.9962 15.878L83.9137 50.116L81.0768 50.728C72.0434 52.632 63.8685 54.094 54.6484 52.598C41.0237 50.354 31.4677 51.51 17.6562 53.652L15.9018 53.924L0 23.12L0.895877 22.066ZM2.72496 23.392C12.3556 12.308 30.6091 24.786 51.6622 21.012C55.9549 20.23 60.4343 19.958 64.8017 18.564L80.5542 48.688C47.0335 55.76 61.9274 44.676 17.2829 51.578L2.72496 23.392Z" fill="#273453"/>
<path d="M5.41257 31.314L43.3753 18.734" stroke="#273453" stroke-width="2" stroke-miterlimit="87.6578"/>
<path d="M70.6249 28.832L41.7702 19.244" stroke="#273453" stroke-width="2" stroke-miterlimit="87.6578"/>
<path d="M8.69743 36.856L65.8469 17.918" stroke="#273453" stroke-width="2" stroke-miterlimit="87.6578"/>
<path d="M75.7015 37.128L22.9195 18.938" stroke="#273453" stroke-width="2" stroke-miterlimit="87.6578"/>
<path d="M10.9745 42.704L68.6465 23.596" stroke="#273453" stroke-width="2" stroke-miterlimit="87.6578"/>
<path d="M80.2929 45.186L5.15128 20.196" stroke="#273453" stroke-width="2" stroke-miterlimit="87.6578"/>
<path d="M14.11 48.28L71.6701 29.206" stroke="#273453" stroke-width="2" stroke-miterlimit="87.6578"/>
<path d="M77.1573 50.558L2.68762 26.146" stroke="#273453" stroke-width="2" stroke-miterlimit="87.6578"/>
<path d="M30.5345 50.252L75.0296 34.68" stroke="#273453" stroke-width="2" stroke-miterlimit="87.6578"/>
<path d="M63.3832 52.054L7.01768 34.204" stroke="#273453" stroke-width="2" stroke-miterlimit="87.6578"/>
<path d="M47.2948 50.49L77.4186 40.494" stroke="#273453" stroke-width="2" stroke-miterlimit="87.6578"/>
<path d="M35.1631 50.286L10.9371 42.126" stroke="#273453" stroke-width="2" stroke-miterlimit="87.6578"/>
<path d="M2.87428 26.214L24.6739 18.972" stroke="#273453" stroke-width="2" stroke-miterlimit="87.6578"/>
<path d="M69.0822 23.4607L56.2162 19.176" stroke="#273453" stroke-width="2" stroke-miterlimit="87.6578"/>
<path fill-rule="evenodd" clip-rule="evenodd" d="M52.894 19.822L52.6701 19.006C52.1848 17.306 50.6917 14.824 49.6465 13.09C48.564 11.322 46.4736 8.398 45.9137 7.446C43.8606 4.148 42.9647 1.598 42.2182 0.374C42.0689 0.102 42.0689 0.136 41.9195 0C40.725 4.25 36.9549 9.112 34.7899 12.478C32.2142 16.456 29.0413 21.386 32.0276 26.826C37.5521 36.924 55.3204 32.742 52.894 19.822Z" fill="#A0C5EB"/>
<path fill-rule="evenodd" clip-rule="evenodd" d="M41.6582 6.18801C41.0237 9.62201 38.9333 12.92 37.7761 16.218C35.8351 21.658 38.1867 23.494 36.8802 24.854C35.3498 26.418 32.2142 24.412 33.782 19.312C34.5659 16.83 37.4402 12.988 39.0453 10.608C39.9785 9.18001 40.837 7.37801 41.6582 6.18801Z" fill="white"/>
<path d="M17.6582 69.4688H18.7832V78H17.6582V71.4258L13.457 78H12.3262V69.4688H13.457V76.043L17.6582 69.4688ZM24.1504 73.3945C24.1504 73.0977 24.0371 72.8633 23.8105 72.6914C23.584 72.5156 23.2734 72.4277 22.8789 72.4277C22.4961 72.4277 22.1758 72.5273 21.918 72.7266C21.6641 72.9258 21.5371 73.1602 21.5371 73.4297H20.459C20.459 72.8789 20.6895 72.4277 21.1504 72.0762C21.6113 71.7246 22.1875 71.5488 22.8789 71.5488C23.6211 71.5488 24.1992 71.709 24.6133 72.0293C25.0273 72.3457 25.2344 72.7988 25.2344 73.3887C25.2344 73.6738 25.1484 73.9355 24.9766 74.1738C24.8047 74.4121 24.5605 74.6016 24.2441 74.7422C24.9824 74.9922 25.3516 75.4844 25.3516 76.2188C25.3516 76.8008 25.127 77.2617 24.6777 77.6016C24.2285 77.9414 23.6289 78.1113 22.8789 78.1113C22.1484 78.1113 21.5449 77.9336 21.0684 77.5781C20.5957 77.2188 20.3594 76.7344 20.3594 76.125H21.4375C21.4375 76.4336 21.5742 76.6992 21.8477 76.9219C22.125 77.1406 22.4688 77.25 22.8789 77.25C23.293 77.25 23.627 77.1543 23.8809 76.9629C24.1348 76.7715 24.2617 76.5234 24.2617 76.2188C24.2617 75.8633 24.1543 75.6094 23.9395 75.457C23.7285 75.3008 23.3984 75.2227 22.9492 75.2227H21.8652V74.3086H23.043C23.7812 74.2891 24.1504 73.9844 24.1504 73.3945ZM30.4082 76.5645L32.5645 71.6602H33.918V78H32.834V73.3887L30.7832 78H30.0332L27.9414 73.2891V78H26.8574V71.6602H28.2637L30.4082 76.5645ZM38.2949 78.1172C37.4355 78.1172 36.7363 77.8359 36.1973 77.2734C35.6582 76.707 35.3887 75.9512 35.3887 75.0059V74.8066C35.3887 74.1777 35.5078 73.6172 35.7461 73.125C35.9883 72.6289 36.3242 72.2422 36.7539 71.9648C37.1875 71.6836 37.6562 71.543 38.1602 71.543C38.9844 71.543 39.625 71.8145 40.082 72.3574C40.5391 72.9004 40.7676 73.6777 40.7676 74.6895V75.1406H36.4727C36.4883 75.7656 36.6699 76.2715 37.0176 76.6582C37.3691 77.041 37.8145 77.2324 38.3535 77.2324C38.7363 77.2324 39.0605 77.1543 39.3262 76.998C39.5918 76.8418 39.8242 76.6348 40.0234 76.377L40.6855 76.8926C40.1543 77.709 39.3574 78.1172 38.2949 78.1172ZM38.1602 72.4336C37.7227 72.4336 37.3555 72.5938 37.0586 72.9141C36.7617 73.2305 36.5781 73.6758 36.5078 74.25H39.6836V74.168C39.6523 73.6172 39.5039 73.1914 39.2383 72.8906C38.9727 72.5859 38.6133 72.4336 38.1602 72.4336ZM47.207 78H46.123V75.293H43.2109V78H42.1211V71.6602H43.2109V74.4082H46.123V71.6602H47.207V78ZM51.584 78.1172C50.7246 78.1172 50.0254 77.8359 49.4863 77.2734C48.9473 76.707 48.6777 75.9512 48.6777 75.0059V74.8066C48.6777 74.1777 48.7969 73.6172 49.0352 73.125C49.2773 72.6289 49.6133 72.2422 50.043 71.9648C50.4766 71.6836 50.9453 71.543 51.4492 71.543C52.2734 71.543 52.9141 71.8145 53.3711 72.3574C53.8281 72.9004 54.0566 73.6777 54.0566 74.6895V75.1406H49.7617C49.7773 75.7656 49.959 76.2715 50.3066 76.6582C50.6582 77.041 51.1035 77.2324 51.6426 77.2324C52.0254 77.2324 52.3496 77.1543 52.6152 76.998C52.8809 76.8418 53.1133 76.6348 53.3125 76.377L53.9746 76.8926C53.4434 77.709 52.6465 78.1172 51.584 78.1172ZM51.4492 72.4336C51.0117 72.4336 50.6445 72.5938 50.3477 72.9141C50.0508 73.2305 49.8672 73.6758 49.7969 74.25H52.9727V74.168C52.9414 73.6172 52.793 73.1914 52.5273 72.8906C52.2617 72.5859 51.9023 72.4336 51.4492 72.4336ZM60.4961 78H59.4121V75.293H56.5V78H55.4102V71.6602H56.5V74.4082H59.4121V71.6602H60.4961V78ZM66.3438 71.6602H67.4277V78H66.3438V73.377L63.4199 78H62.3359V71.6602H63.4199V76.2891L66.3438 71.6602ZM71.7988 78.1172C70.9395 78.1172 70.2402 77.8359 69.7012 77.2734C69.1621 76.707 68.8926 75.9512 68.8926 75.0059V74.8066C68.8926 74.1777 69.0117 73.6172 69.25 73.125C69.4922 72.6289 69.8281 72.2422 70.2578 71.9648C70.6914 71.6836 71.1602 71.543 71.6641 71.543C72.4883 71.543 73.1289 71.8145 73.5859 72.3574C74.043 72.9004 74.2715 73.6777 74.2715 74.6895V75.1406H69.9766C69.9922 75.7656 70.1738 76.2715 70.5215 76.6582C70.873 77.041 71.3184 77.2324 71.8574 77.2324C72.2402 77.2324 72.5645 77.1543 72.8301 76.998C73.0957 76.8418 73.3281 76.6348 73.5273 76.377L74.1895 76.8926C73.6582 77.709 72.8613 78.1172 71.7988 78.1172ZM71.6641 72.4336C71.2266 72.4336 70.8594 72.5938 70.5625 72.9141C70.2656 73.2305 70.082 73.6758 70.0117 74.25H73.1875V74.168C73.1562 73.6172 73.0078 73.1914 72.7422 72.8906C72.4766 72.5859 72.1172 72.4336 71.6641 72.4336ZM16.6914 88.9004C16.6914 89.8652 16.4707 90.6426 16.0293 91.2324C15.5879 91.8223 14.9902 92.1172 14.2363 92.1172C13.4668 92.1172 12.8613 91.873 12.4199 91.3848V94.4375H11.3359V85.6602H12.3262L12.3789 86.3633C12.8203 85.8164 13.4336 85.543 14.2188 85.543C14.9805 85.543 15.582 85.8301 16.0234 86.4043C16.4688 86.9785 16.6914 87.7773 16.6914 88.8008V88.9004ZM15.6074 88.7773C15.6074 88.0625 15.4551 87.498 15.1504 87.084C14.8457 86.6699 14.4277 86.4629 13.8965 86.4629C13.2402 86.4629 12.748 86.7539 12.4199 87.3359V90.3652C12.7441 90.9434 13.2402 91.2324 13.9082 91.2324C14.4277 91.2324 14.8398 91.0273 15.1445 90.6172C15.4531 90.2031 15.6074 89.5898 15.6074 88.7773ZM24.8008 92H23.6699V88.0566H19.3691V92H18.2441V83.4688H19.3691V87.1367H23.6699V83.4688H24.8008V92ZM28.8848 88.8184H26.0254V87.9336H28.8848V88.8184ZM32.7285 86.0234C33.5254 86.0234 34.1621 86.291 34.6387 86.8262C35.1191 87.3574 35.3594 88.0586 35.3594 88.9297V89.0293C35.3594 89.627 35.2441 90.1621 35.0137 90.6348C34.7832 91.1035 34.4512 91.4688 34.0176 91.7305C33.5879 91.9883 33.0918 92.1172 32.5293 92.1172C31.6777 92.1172 30.9922 91.834 30.4727 91.2676C29.9531 90.6973 29.6934 89.9336 29.6934 88.9766V88.4492C29.6934 87.1172 29.9395 86.0586 30.4316 85.2734C30.9277 84.4883 31.6582 84.0098 32.623 83.8379C33.1699 83.7402 33.5391 83.6211 33.7305 83.4805C33.9219 83.3398 34.0176 83.1465 34.0176 82.9004H34.9082C34.9082 83.3887 34.7969 83.7695 34.5742 84.043C34.3555 84.3164 34.0039 84.5098 33.5195 84.623L32.7109 84.8047C32.0664 84.957 31.582 85.2148 31.2578 85.5781C30.9375 85.9375 30.7285 86.418 30.6309 87.0195C31.2051 86.3555 31.9043 86.0234 32.7285 86.0234ZM32.5176 86.9141C31.9863 86.9141 31.5645 87.0938 31.252 87.4531C30.9395 87.8086 30.7832 88.3027 30.7832 88.9355V89.0293C30.7832 89.709 30.9395 90.248 31.252 90.6465C31.5684 91.041 31.9941 91.2383 32.5293 91.2383C33.0684 91.2383 33.4941 91.0391 33.8066 90.6406C34.1191 90.2422 34.2754 89.6602 34.2754 88.8945C34.2754 88.2969 34.1172 87.8184 33.8008 87.459C33.4883 87.0957 33.0605 86.9141 32.5176 86.9141ZM40.4922 92C40.4297 91.875 40.3789 91.6523 40.3398 91.332C39.8359 91.8555 39.2344 92.1172 38.5352 92.1172C37.9102 92.1172 37.3965 91.9414 36.9941 91.5898C36.5957 91.2344 36.3965 90.7852 36.3965 90.2422C36.3965 89.582 36.6465 89.0703 37.1465 88.707C37.6504 88.3398 38.3574 88.1562 39.2676 88.1562H40.3223V87.6582C40.3223 87.2793 40.209 86.9785 39.9824 86.7559C39.7559 86.5293 39.4219 86.416 38.9805 86.416C38.5938 86.416 38.2695 86.5137 38.0078 86.709C37.7461 86.9043 37.6152 87.1406 37.6152 87.418H36.5254C36.5254 87.1016 36.6367 86.7969 36.8594 86.5039C37.0859 86.207 37.3906 85.9727 37.7734 85.8008C38.1602 85.6289 38.584 85.543 39.0449 85.543C39.7754 85.543 40.3477 85.7266 40.7617 86.0938C41.1758 86.457 41.3906 86.959 41.4062 87.5996V90.5176C41.4062 91.0996 41.4805 91.5625 41.6289 91.9062V92H40.4922ZM38.6934 91.1738C39.0332 91.1738 39.3555 91.0859 39.6602 90.9102C39.9648 90.7344 40.1855 90.5059 40.3223 90.2246V88.9238H39.4727C38.1445 88.9238 37.4805 89.3125 37.4805 90.0898C37.4805 90.4297 37.5938 90.6953 37.8203 90.8867C38.0469 91.0781 38.3379 91.1738 38.6934 91.1738ZM48.3027 85.6602V92H47.2129V86.5566H45.0566L44.9277 88.9297C44.8574 90.0195 44.6738 90.7988 44.377 91.2676C44.084 91.7363 43.6172 91.9805 42.9766 92H42.543V91.0449L42.8535 91.0215C43.2051 90.9824 43.457 90.7793 43.6094 90.4121C43.7617 90.0449 43.8594 89.3652 43.9023 88.373L44.0195 85.6602H48.3027ZM53.957 92C53.8945 91.875 53.8438 91.6523 53.8047 91.332C53.3008 91.8555 52.6992 92.1172 52 92.1172C51.375 92.1172 50.8613 91.9414 50.459 91.5898C50.0605 91.2344 49.8613 90.7852 49.8613 90.2422C49.8613 89.582 50.1113 89.0703 50.6113 88.707C51.1152 88.3398 51.8223 88.1562 52.7324 88.1562H53.7871V87.6582C53.7871 87.2793 53.6738 86.9785 53.4473 86.7559C53.2207 86.5293 52.8867 86.416 52.4453 86.416C52.0586 86.416 51.7344 86.5137 51.4727 86.709C51.2109 86.9043 51.0801 87.1406 51.0801 87.418H49.9902C49.9902 87.1016 50.1016 86.7969 50.3242 86.5039C50.5508 86.207 50.8555 85.9727 51.2383 85.8008C51.625 85.6289 52.0488 85.543 52.5098 85.543C53.2402 85.543 53.8125 85.7266 54.2266 86.0938C54.6406 86.457 54.8555 86.959 54.8711 87.5996V90.5176C54.8711 91.0996 54.9453 91.5625 55.0938 91.9062V92H53.957ZM52.1582 91.1738C52.498 91.1738 52.8203 91.0859 53.125 90.9102C53.4297 90.7344 53.6504 90.5059 53.7871 90.2246V88.9238H52.9375C51.6094 88.9238 50.9453 89.3125 50.9453 90.0898C50.9453 90.4297 51.0586 90.6953 51.2852 90.8867C51.5117 91.0781 51.8027 91.1738 52.1582 91.1738ZM61.75 92H60.666V89.293H57.7539V92H56.6641V85.6602H57.7539V88.4082H60.666V85.6602H61.75V92ZM66.0391 91.2324C66.4258 91.2324 66.7637 91.1152 67.0527 90.8809C67.3418 90.6465 67.502 90.3535 67.5332 90.002H68.5586C68.5391 90.3652 68.4141 90.7109 68.1836 91.0391C67.9531 91.3672 67.6445 91.6289 67.2578 91.8242C66.875 92.0195 66.4688 92.1172 66.0391 92.1172C65.1758 92.1172 64.4883 91.8301 63.9766 91.2559C63.4688 90.6777 63.2148 89.8887 63.2148 88.8887V88.707C63.2148 88.0898 63.3281 87.541 63.5547 87.0605C63.7812 86.5801 64.1055 86.207 64.5273 85.9414C64.9531 85.6758 65.4551 85.543 66.0332 85.543C66.7441 85.543 67.334 85.7559 67.8027 86.1816C68.2754 86.6074 68.5273 87.1602 68.5586 87.8398H67.5332C67.502 87.4297 67.3457 87.0938 67.0645 86.832C66.7871 86.5664 66.4434 86.4336 66.0332 86.4336C65.4824 86.4336 65.0547 86.6328 64.75 87.0312C64.4492 87.4258 64.2988 87.998 64.2988 88.748V88.9531C64.2988 89.6836 64.4492 90.2461 64.75 90.6406C65.0508 91.0352 65.4805 91.2324 66.0391 91.2324ZM73.6914 92C73.6289 91.875 73.5781 91.6523 73.5391 91.332C73.0352 91.8555 72.4336 92.1172 71.7344 92.1172C71.1094 92.1172 70.5957 91.9414 70.1934 91.5898C69.7949 91.2344 69.5957 90.7852 69.5957 90.2422C69.5957 89.582 69.8457 89.0703 70.3457 88.707C70.8496 88.3398 71.5566 88.1562 72.4668 88.1562H73.5215V87.6582C73.5215 87.2793 73.4082 86.9785 73.1816 86.7559C72.9551 86.5293 72.6211 86.416 72.1797 86.416C71.793 86.416 71.4688 86.5137 71.207 86.709C70.9453 86.9043 70.8145 87.1406 70.8145 87.418H69.7246C69.7246 87.1016 69.8359 86.7969 70.0586 86.5039C70.2852 86.207 70.5898 85.9727 70.9727 85.8008C71.3594 85.6289 71.7832 85.543 72.2441 85.543C72.9746 85.543 73.5469 85.7266 73.9609 86.0938C74.375 86.457 74.5898 86.959 74.6055 87.5996V90.5176C74.6055 91.0996 74.6797 91.5625 74.8281 91.9062V92H73.6914ZM71.8926 91.1738C72.2324 91.1738 72.5547 91.0859 72.8594 90.9102C73.1641 90.7344 73.3848 90.5059 73.5215 90.2246V88.9238H72.6719C71.3438 88.9238 70.6797 89.3125 70.6797 90.0898C70.6797 90.4297 70.793 90.6953 71.0195 90.8867C71.2461 91.0781 71.5371 91.1738 71.8926 91.1738Z" fill="#273453"/>
</svg>

<svg width="84" height="95" fill="none" xmlns="http://www.w3.org/2000/svg"><path fill-rule="evenodd" clip-rule="evenodd" d="M.896 22.066c1.68-1.938 3.733-3.4 6.234-4.318 6.122-2.278 14.035-.748 20.344.272 7.988 1.292 15.677 2.346 23.74.884 4.293-.782 8.698-1.054 12.804-2.38l1.978-.646 17.918 34.238-2.837.612c-9.034 1.904-17.209 3.366-26.429 1.87-13.624-2.244-23.18-1.088-36.992 1.054l-1.754.272L0 23.12l.896-1.054zm1.829 1.326c9.63-11.084 27.884 1.394 48.937-2.38 4.293-.782 8.772-1.054 13.14-2.448l15.752 30.124c-33.52 7.072-18.627-4.012-63.271 2.89L2.725 23.392z" fill="#273453"/><path d="M5.413 31.314l37.962-12.58m27.25 10.098L41.77 19.244M8.697 36.856l57.15-18.938m9.854 19.21L22.92 18.938M10.975 42.704l57.672-19.108m11.646 21.59L5.15 20.196m8.96 28.084l57.56-19.074m5.487 21.352L2.687 26.146m27.848 24.106L75.03 34.68M63.383 52.054L7.018 34.204M47.295 50.49l30.124-9.996m-42.256 9.792l-24.226-8.16M2.874 26.214l21.8-7.242m44.408 4.488l-12.866-4.284" stroke="#273453" stroke-width="2" stroke-miterlimit="87.658"/><path fill-rule="evenodd" clip-rule="evenodd" d="M52.894 19.822l-.224-.816c-.485-1.7-1.978-4.182-3.023-5.916-1.083-1.768-3.173-4.692-3.733-5.644-2.053-3.298-2.95-5.848-3.696-7.072-.15-.272-.15-.238-.299-.374-1.194 4.25-4.964 9.112-7.13 12.478-2.575 3.978-5.748 8.908-2.761 14.348 5.524 10.098 23.292 5.916 20.866-7.004z" fill="#A0C5EB"/><path fill-rule="evenodd" clip-rule="evenodd" d="M41.658 6.188c-.634 3.434-2.725 6.732-3.882 10.03-1.94 5.44.41 7.276-.896 8.636-1.53 1.564-4.666-.442-3.098-5.542.784-2.482 3.658-6.324 5.263-8.704.933-1.428 1.792-3.23 2.613-4.42z" fill="#fff"/><path d="M17.658 69.469h1.125V78h-1.125v-6.574L13.457 78h-1.13v-8.531h1.13v6.574l4.201-6.574zm6.492 3.925a.835.835 0 00-.34-.703c-.226-.175-.537-.263-.931-.263-.383 0-.703.1-.961.299-.254.199-.38.433-.38.703h-1.079c0-.551.23-1.002.691-1.354.461-.351 1.038-.527 1.729-.527.742 0 1.32.16 1.734.48.414.317.621.77.621 1.36 0 .285-.086.547-.257.785a1.756 1.756 0 01-.733.568c.738.25 1.108.742 1.108 1.477 0 .582-.225 1.043-.674 1.383-.45.34-1.05.51-1.8.51-.73 0-1.333-.178-1.81-.534-.472-.36-.709-.844-.709-1.453h1.078c0 .309.137.574.41.797.278.219.622.328 1.032.328.414 0 .748-.096 1.002-.287a.89.89 0 00.38-.744c0-.356-.107-.61-.322-.762-.21-.156-.54-.234-.99-.234h-1.084v-.914h1.178c.738-.02 1.107-.325 1.107-.915zm6.258 3.17l2.157-4.904h1.353V78h-1.084v-4.611L30.784 78h-.75l-2.093-4.71V78h-1.084v-6.34h1.407l2.144 4.904zm7.887 1.553c-.86 0-1.559-.281-2.098-.844-.539-.566-.808-1.322-.808-2.267v-.2c0-.628.119-1.189.357-1.681a2.815 2.815 0 011.008-1.16 2.536 2.536 0 011.406-.422c.824 0 1.465.271 1.922.814.457.543.686 1.32.686 2.332v.452h-4.295c.015.625.197 1.13.545 1.517.351.383.797.574 1.335.574.383 0 .707-.078.973-.234.266-.156.498-.363.697-.621l.662.516c-.53.816-1.328 1.224-2.39 1.224zm-.135-5.683c-.437 0-.804.16-1.101.48-.297.317-.48.762-.551 1.336h3.176v-.082c-.032-.55-.18-.977-.446-1.277-.265-.305-.625-.457-1.078-.457zM47.207 78h-1.084v-2.707h-2.912V78h-1.09v-6.34h1.09v2.748h2.912V71.66h1.084V78zm4.377.117c-.86 0-1.559-.281-2.098-.844-.539-.566-.808-1.322-.808-2.267v-.2c0-.628.119-1.189.357-1.681a2.814 2.814 0 011.008-1.16 2.535 2.535 0 011.406-.422c.824 0 1.465.271 1.922.814.457.543.686 1.32.686 2.332v.452h-4.295c.015.625.197 1.13.545 1.517.351.383.796.574 1.336.574.382 0 .707-.078.972-.234.266-.156.498-.363.697-.621l.663.516c-.532.816-1.328 1.224-2.391 1.224zm-.135-5.683c-.437 0-.804.16-1.101.48-.297.317-.48.762-.551 1.336h3.176v-.082c-.032-.55-.18-.977-.446-1.277-.265-.305-.625-.457-1.078-.457zM60.496 78h-1.084v-2.707H56.5V78h-1.09v-6.34h1.09v2.748h2.912V71.66h1.084V78zm5.848-6.34h1.084V78h-1.084v-4.623L63.42 78h-1.084v-6.34h1.084v4.63l2.924-4.63zm5.455 6.457c-.86 0-1.559-.281-2.098-.844-.539-.566-.808-1.322-.808-2.267v-.2c0-.628.119-1.189.357-1.681a2.815 2.815 0 011.008-1.16 2.536 2.536 0 011.406-.422c.824 0 1.465.271 1.922.814.457.543.686 1.32.686 2.332v.452h-4.295c.015.625.197 1.13.544 1.517.352.383.797.574 1.336.574.383 0 .707-.078.973-.234.266-.156.498-.363.697-.621l.662.516c-.53.816-1.328 1.224-2.39 1.224zm-.135-5.683c-.437 0-.805.16-1.102.48-.296.317-.48.762-.55 1.336h3.175v-.082c-.03-.55-.18-.977-.445-1.277-.265-.305-.625-.457-1.078-.457zM16.691 88.9c0 .965-.22 1.743-.662 2.332-.441.59-1.039.885-1.793.885-.77 0-1.375-.244-1.816-.732v3.052h-1.084V85.66h.99l.053.703c.441-.547 1.055-.82 1.84-.82.761 0 1.363.287 1.804.861.446.575.668 1.373.668 2.397v.1zm-1.084-.123c0-.715-.152-1.279-.457-1.693-.304-.414-.722-.621-1.254-.621-.656 0-1.148.29-1.476.873v3.03c.324.577.82.866 1.488.866.52 0 .932-.205 1.237-.615.308-.414.462-1.027.462-1.84zM24.801 92H23.67v-3.943h-4.3V92h-1.126v-8.531h1.125v3.668h4.3v-3.668h1.132V92zm4.084-3.182h-2.86v-.884h2.86v.884zm3.843-2.795c.797 0 1.434.268 1.91.803.481.531.721 1.233.721 2.104v.1c0 .597-.115 1.132-.345 1.605-.23.468-.563.834-.996 1.096-.43.257-.926.386-1.489.386-.851 0-1.537-.283-2.056-.85-.52-.57-.78-1.333-.78-2.29v-.528c0-1.332.246-2.39.739-3.176.496-.785 1.226-1.263 2.191-1.435.547-.098.916-.217 1.108-.357a.68.68 0 00.287-.58h.89c0 .488-.111.868-.334 1.142-.218.273-.57.467-1.054.58l-.81.182c-.644.152-1.128.41-1.452.773-.32.36-.53.84-.627 1.441.574-.663 1.273-.996 2.097-.996zm-.21.891c-.532 0-.954.18-1.266.54-.313.355-.469.849-.469 1.482v.093c0 .68.156 1.219.469 1.618.316.394.742.591 1.277.591.54 0 .965-.199 1.278-.597.312-.399.468-.98.468-1.747 0-.597-.158-1.076-.474-1.435-.313-.363-.74-.545-1.283-.545zM40.492 92c-.062-.125-.113-.348-.152-.668-.504.524-1.106.785-1.805.785-.625 0-1.138-.176-1.54-.527a1.728 1.728 0 01-.598-1.348c0-.66.25-1.172.75-1.535.503-.367 1.21-.55 2.12-.55h1.055v-.499c0-.379-.113-.68-.34-.902-.226-.227-.56-.34-1.002-.34-.386 0-.71.098-.972.293-.262.195-.393.432-.393.709h-1.09c0-.316.112-.621.334-.914.227-.297.532-.531.914-.703a3.097 3.097 0 011.272-.258c.73 0 1.303.184 1.717.55.414.364.629.866.644 1.507v2.918c0 .582.075 1.044.223 1.388V92h-1.137zm-1.799-.826c.34 0 .663-.088.967-.264a1.59 1.59 0 00.662-.685v-1.301h-.85c-1.328 0-1.992.388-1.992 1.166 0 .34.114.605.34.797.227.191.518.287.873.287zm9.61-5.514V92h-1.09v-5.443h-2.156l-.13 2.373c-.07 1.09-.253 1.869-.55 2.338-.293.468-.76.713-1.4.732h-.434v-.955l.31-.023c.352-.04.604-.243.756-.61.153-.367.25-1.047.293-2.039l.117-2.713h4.284zM53.957 92c-.063-.125-.113-.348-.152-.668-.504.524-1.106.785-1.805.785-.625 0-1.139-.176-1.541-.527a1.728 1.728 0 01-.598-1.348c0-.66.25-1.172.75-1.535.504-.367 1.211-.55 2.121-.55h1.055v-.499c0-.379-.113-.68-.34-.902-.226-.227-.56-.34-1.002-.34-.386 0-.71.098-.972.293-.262.195-.393.432-.393.709h-1.09c0-.316.112-.621.334-.914.227-.297.532-.531.914-.703.387-.172.81-.258 1.272-.258.73 0 1.303.184 1.717.55.414.364.629.866.644 1.507v2.918c0 .582.074 1.044.223 1.388V92h-1.137zm-1.799-.826c.34 0 .662-.088.967-.264.305-.176.525-.404.662-.685v-1.301h-.85c-1.328 0-1.992.388-1.992 1.166 0 .34.114.605.34.797.227.191.518.287.873.287zM61.75 92h-1.084v-2.707h-2.912V92h-1.09v-6.34h1.09v2.748h2.912V85.66h1.084V92zm4.29-.768c.386 0 .724-.117 1.013-.351.289-.234.449-.528.48-.879h1.026c-.02.363-.145.709-.375 1.037-.23.328-.54.59-.926.785a2.645 2.645 0 01-1.219.293c-.863 0-1.55-.287-2.062-.861-.508-.578-.762-1.367-.762-2.367v-.182c0-.617.113-1.166.34-1.646.226-.48.55-.854.972-1.12.426-.265.928-.398 1.506-.398.711 0 1.301.213 1.77.639.472.425.724.978.756 1.658h-1.026a1.477 1.477 0 00-.469-1.008 1.433 1.433 0 00-1.03-.398c-.552 0-.98.199-1.284.597-.3.395-.451.967-.451 1.717v.205c0 .73.15 1.293.451 1.688.3.394.73.591 1.29.591zm7.65.768c-.062-.125-.113-.348-.152-.668-.504.524-1.105.785-1.805.785-.625 0-1.138-.176-1.54-.527a1.728 1.728 0 01-.598-1.348c0-.66.25-1.172.75-1.535.504-.367 1.21-.55 2.12-.55h1.056v-.499c0-.379-.114-.68-.34-.902-.227-.227-.56-.34-1.002-.34-.387 0-.711.098-.973.293-.262.195-.392.432-.392.709h-1.09c0-.316.11-.621.334-.914.226-.297.53-.531.914-.703.386-.172.81-.258 1.271-.258.73 0 1.303.184 1.717.55.414.364.629.866.645 1.507v2.918c0 .582.074 1.044.222 1.388V92H73.69zm-1.798-.826c.34 0 .662-.088.966-.264.305-.176.526-.404.663-.685v-1.301h-.85c-1.328 0-1.992.388-1.992 1.166 0 .34.113.605.34.797.226.191.517.287.873.287z" fill="#273453"/></svg>
